X:1
T:All Bells in Paradise
B:The Oxford Book of Carols,
M:3/4
L:1/4
K:Eb
(c/d/)|(ed)c|B2G/G/|(=Ac)=B|c3|
w:Ov-ver yon-der's a park, which is new-ly be-gun:
BBc|B/G/EF|Gc=A|B2(c/d/|
w:All bells to Pa-ra-dise I heard them a-ring, Which is
ed)c/c/|BBc|(_dc)B|A2G/F/|
w:sil-ver on the out-side and gold_ with-in: And I
E2F|GeB|(AG)F|E2||
w:love sweet Je-sus a-bove_ all thing.
